src/assets/icons/calendar_icon.svg

<svg width="25" height="24" viewBox="0 0 25 24" fill="none" xmlns="http://www.w3.org/2000/svg">
<path fill-rule="evenodd" clip-rule="evenodd" d="M4.8335 4.5C4.00507 4.5 3.3335 5.17157 3.3335 6V19.5C3.3335 20.3284 4.00507 21 4.8335 21H19.8335C20.6619 21 21.3335 20.3284 21.3335 19.5V6C21.3335 5.17157 20.6619 4.5 19.8335 4.5H4.8335ZM1.8335 6C1.8335 4.34315 3.17664 3 4.8335 3H19.8335C21.4904 3 22.8335 4.34315 22.8335 6V19.5C22.8335 21.1569 21.4904 22.5 19.8335 22.5H4.8335C3.17664 22.5 1.8335 21.1569 1.8335 19.5V6Z" fill="#22232C"/>
<path fill-rule="evenodd" clip-rule="evenodd" d="M6.3335 1.5C6.74771 1.5 7.0835 1.83579 7.0835 2.25V3.75C7.0835 4.16421 6.74771 4.5 6.3335 4.5C5.91928 4.5 5.5835 4.16421 5.5835 3.75V2.25C5.5835 1.83579 5.91928 1.5 6.3335 1.5ZM18.3335 1.5C18.7477 1.5 19.0835 1.83579 19.0835 2.25V3.75C19.0835 4.16421 18.7477 4.5 18.3335 4.5C17.9193 4.5 17.5835 4.16421 17.5835 3.75V2.25C17.5835 1.83579 17.9193 1.5 18.3335 1.5ZM1.8335 7.5C1.8335 7.08579 2.16928 6.75 2.5835 6.75H22.0835C22.4977 6.75 22.8335 7.08579 22.8335 7.5C22.8335 7.91421 22.4977 8.25 22.0835 8.25H2.5835C2.16928 8.25 1.8335 7.91421 1.8335 7.5ZM6.90579 11.0055C7.22552 10.465 8.02336 9.75 9.32553 9.75C10.0445 9.75 10.7761 9.94447 11.3471 10.3794C11.9376 10.8291 12.3191 11.5122 12.3204 12.3661C12.3236 12.7017 12.2599 13.0347 12.133 13.3455C12.0062 13.6561 11.8188 13.9383 11.5818 14.1757C11.5289 14.2296 11.4742 14.2808 11.418 14.3295C11.5556 14.4296 11.6876 14.5419 11.8103 14.6673C12.3552 15.2225 12.5679 15.966 12.5679 16.6959C12.5679 17.5837 12.1832 18.3122 11.5638 18.8016C10.9615 19.2774 10.1761 19.5 9.37475 19.5C7.85498 19.5 6.95967 18.4075 6.67194 17.9199C6.46144 17.5632 6.57998 17.1033 6.93672 16.8928C7.29346 16.6823 7.75329 16.8009 7.9638 17.1576C8.13357 17.4453 8.62858 18 9.37475 18C9.91352 18 10.3497 17.849 10.634 17.6245C10.901 17.4136 11.0679 17.115 11.0679 16.6959C11.0679 16.2427 10.9375 15.9194 10.7398 15.718L10.7388 15.717C10.3325 15.3015 9.65926 15.1233 9.3274 15.1233C8.91319 15.1233 8.5774 14.7875 8.5774 14.3733C8.5774 13.9591 8.91319 13.6233 9.3274 13.6233C9.44069 13.6233 9.65481 13.5931 9.89587 13.504C10.1339 13.4159 10.3529 13.2871 10.5121 13.1241C10.5144 13.1218 10.5167 13.1195 10.519 13.1172C10.6159 13.0204 10.6925 12.9053 10.7443 12.7785C10.7961 12.6516 10.822 12.5158 10.8204 12.3788C10.8204 12.376 10.8204 12.3731 10.8204 12.3703C10.8204 12.0018 10.6727 11.7512 10.4382 11.5727C10.1833 11.3785 9.7925 11.25 9.32553 11.25C8.62144 11.25 8.28303 11.6235 8.19683 11.7692C7.98594 12.1257 7.52597 12.2437 7.16946 12.0329C6.81295 11.822 6.6949 11.362 6.90579 11.0055ZM16.1739 10.0837C16.3028 9.98875 16.4587 9.9375 16.6188 9.9375H16.8335C17.2477 9.9375 17.5835 10.2733 17.5835 10.6875V18.5625C17.5835 18.9767 17.2477 19.3125 16.8335 19.3125C16.4193 19.3125 16.0835 18.9767 16.0835 18.5625V12.0137L15.0285 12.7913C14.695 13.037 14.2255 12.9659 13.9797 12.6325C13.734 12.299 13.8051 11.8295 14.1385 11.5837L16.1739 10.0837Z" fill="#22232C"/>
</svg>

<svg xmlns="http://www.w3.org/2000/svg" width="25" height="24" fill="none"><path fill="#22232C" fill-rule="evenodd" d="M4.833 4.5a1.5 1.5 0 0 0-1.5 1.5v13.5a1.5 1.5 0 0 0 1.5 1.5h15a1.5 1.5 0 0 0 1.5-1.5V6a1.5 1.5 0 0 0-1.5-1.5h-15Zm-3 1.5a3 3 0 0 1 3-3h15a3 3 0 0 1 3 3v13.5a3 3 0 0 1-3 3h-15a3 3 0 0 1-3-3V6Z" clip-rule="evenodd"/><path fill="#22232C" fill-rule="evenodd" d="M6.333 1.5a.75.75 0 0 1 .75.75v1.5a.75.75 0 0 1-1.5 0v-1.5a.75.75 0 0 1 .75-.75Zm12 0a.75.75 0 0 1 .75.75v1.5a.75.75 0 0 1-1.5 0v-1.5a.75.75 0 0 1 .75-.75Zm-16.5 6a.75.75 0 0 1 .75-.75h19.5a.75.75 0 0 1 0 1.5h-19.5a.75.75 0 0 1-.75-.75Zm5.073 3.505c.32-.54 1.117-1.255 2.42-1.255.718 0 1.45.194 2.021.63.59.45.972 1.132.973 1.986a2.527 2.527 0 0 1-.738 1.81 2.783 2.783 0 0 1-.164.153c.138.1.27.213.392.338.545.556.758 1.299.758 2.029 0 .888-.385 1.616-1.004 2.106-.603.475-1.388.698-2.19.698-1.519 0-2.414-1.093-2.702-1.58a.75.75 0 0 1 1.292-.762c.17.287.665.842 1.41.842.54 0 .976-.151 1.26-.375.267-.211.434-.51.434-.93 0-.452-.13-.776-.328-.977l-.001-.001c-.407-.415-1.08-.594-1.412-.594a.75.75 0 0 1 0-1.5c.114 0 .328-.03.569-.119a1.68 1.68 0 0 0 .616-.38l.007-.007a1.028 1.028 0 0 0 .301-.738v-.009c0-.368-.147-.619-.382-.797-.255-.194-.646-.323-1.112-.323-.705 0-1.043.373-1.13.52a.75.75 0 0 1-1.29-.764Zm9.268-.921a.75.75 0 0 1 .445-.146h.215a.75.75 0 0 1 .75.75v7.874a.75.75 0 0 1-1.5 0v-6.548l-1.056.777a.75.75 0 0 1-.89-1.207l2.036-1.5Z" clip-rule="evenodd"/></svg>
